!!!!SEGMENT: 043-1a-TR.krn
!!!COM: Chopin, Fryderyk
!!!OTL: TARENTELLE.
!!!OPS: Op. 43
!!!PTL: Tarentelle Pour Piano Par F. Chopin.
!!!PPR: Troupenas
!!!PPP: Paris
!!!NIFC-rismID: 1001043664
!!!NIFC-shelfmark: PL-Wbfc 6613/n
!!!OMD: Presto.
!!!system-decoration: {(s1,s2)}
**kern	**kern	**dynam
*part1	*part1	*part1
*staff2	*staff1	*
*clefF4	*clefG2	*
*k[b-e-a-d-]	*k[b-e-a-d-]	*
*A-:	*A-:	*
*M6/8	*M6/8	*
4r	(>4e-	.
8r	8e-	.
=1	=1	=1
2.r	4ee-	p
.	8ee-	.
.	4e-	.
.	8e-	.
=2	=2	=2
2.rF	4ee-	.
.	8ee-	.
.	4e-	.
.	8e-	.
=3	=3	=3
2.rF	4dn	.
.	8d	.
.	4d-X	.
.	8d-	.
==4|!	==4|!	==4|!
*	*^	*
!	!LO:N:vis=2	!	!
8AA-L	8cL	2c	.
8A-	8d-	.	.
8E-J	8dnJ	.	.
8AA-L	8e-L	.	.
8A-	8g	4ryy	.
8E-J	8fJ	.	.
*	*v	*v	*
!!LO:LB:g=original
=5	=5	=5
8GGL	4e- 4B-)	.
8G	.	.
8E-J	(8e- 8B-	.
8FFL\	4a- 4d-)	.
8F	.	.
!	!LO:TX:b:t=P:cross-staff slur:problem	!
8D-J	(<8a- 8d-	.
=6	=6	=6
8EEnL	4G<)	.
8En	.	.
!	!LO:TX:b:t=P:cross-staff slur:problem	!
8CJ	(<8G<	.
8EEL\	4g 4c)	.
8E	.	.
!	!LO:TX:b:t=P:cross-staff slur:problem	!
8CJ	(<8g	.
=7	=7	=7
*	*^	*
8EE-XL	4G-X<)	4.ryy	.
8E-X	.	.	.
!	!LO:TX:b:t=P:cross-staff slur:problem	!	!
8C-XJ	(>8G-<	.	.
8EE-L\	4g-X)	4.c-X	.
8E-	.	.	.
8C-J	(>8g-	.	.
=8	=8	=8	=8
8EE-L\	2.f^>	8F<L	.
8E-	.	8G<	.
8FFJ	.	8An<J	.
8DD-L\	.	8B-L	.
8D-	.	8c	.
8FFJ	.	&(>8d-J	.
*	*v	*v	*
=9	=9	=9
8CCL	4f 4e-&)	.
8C	.	.
8FFJ	&(>8f 8e-	.
8BBB-L	4dd- 4b-&)	.
8BB-	.	.
8FFJ	8dd- 8b-	.
!!LO:LB:g=original
=10	=10	=10
8EE-L\	4e- 4d-	.
8G	.	.
8E-J	&(>8e- 8d-	.
8EE-L\	4cc 4a-&)	.
8A-	.	.
8E-J	8cc	.
=11	=11	=11
*	*^	*
8EE-L\	4b-	4.d-	.
8G	.	.	.
8E-J	8b-	.	.
8AA-L\	4a-	4.c	.
8A-	.	.	.
8E-J	8a-	.	.
=12	=12	=12	=12
!	!LO:N:vis=2	!	!
8AA-L\	8cL	2c	.
8A-	8d-	.	.
8E-J	8dnJ	.	.
8AA-L\	8e-L	.	.
8A-	8g	4ryy	.
8E-J	8fJ	.	.
*	*v	*v	*
=13	=13	=13
8GGL\	4e- 4B-)	.
8G	.	.
8E-J	(<8e- 8B-	.
8FFL\	4a- 4d-)	.
8F	.	.
!	!LO:TX:b:t=P:cross-staff slur:problem	!
8D-J	(<8a- 8d-	.
=14	=14	=14
8EEnL\	4G<)	.
8En	.	.
!	!LO:TX:b:t=P:cross-staff slur:problem	!
8CJ	(<8G<	.
8EEL\	4g 4c)	.
8E	.	.
!	!LO:TX:b:t=P:cross-staff slur:problem	!
8CJ	(<8g	.
!!LO:LB:g=original
=15	=15	=15
*	*^	*
!	!LO:TX:b:t=P:łuk po zmianie systemu obrócony w drugą stronę:problem	!	!
8EE-XL	4G-X<)	4.ryy	.
8E-X	.	.	.
!	!LO:TX:b:t=P:cross-staff slur:problem	!	!
8C-XJ	(>8G-<	.	.
8EE-L\	4g-X)	4.c-X	.
8E-	.	.	.
8C-J	(>8g-	.	.
=16	=16	=16	=16
8EE-L	2.f^>	8F<L	.
8E-	.	8G<	.
8FFJ	.	8An<J	.
8DD-L\	.	8B-L	.
8D-	.	8c	.
8FFJ	.	&(>8d-J	.
*	*v	*v	*
=17	=17	=17
8CCL	4f 4e-&)	.
8C	.	.
8FFJ	&(>8f 8e-	.
8BBB-L	4dd- 4b-&)	.
8BB-	.	.
8FFJ	&(>8dd- 8b-	.
=18	=18	=18
8EE-L\	4e- 4d-&)	.
8G	.	.
8E-J	&(>8e- 8d-	.
8EE-L\	4cc 4a-&)	.
8A-	.	.
8E-J	8cc	.
=19	=19	=19
*	*^	*
8EE-L\	4b-	4.d-	.
8G	.	.	.
8E-J	8b-	.	.
8AA-L\	4a-	4.c	.
8A-	.	.	.
8E-J	8a-)	.	.
*	*v	*v	*
!!LO:LB:g=original
=20	=20	=20
!	!	!LO:DY:rj
4.E- 4.EE-	(>4.ee-^> 4.e-\	f
8f-X>L	8dd-L	.
8c-X>	8a-	.
8d->J	8b-J	.
=21	=21	=21
8e->L	8cc-XL	.
8B->	8g-X	.
8c-X>J	8a-J	.
8d->L	8b-L	.
8A->	8f-X	.
8B->J	8g-J	.
=22	=22	=22
8c-XL	8a-L	.
8G-X	8e-	.
8A-J	8f-XJ	.
8B-L	8g-XL	.
8F-X	8d-	.
8G-J	8e-J	.
=23	=23	=23
*	*^	*
8A-L	8f-XL	8ryy	.
8E-	8c-X	4c-X	.
8F-XJ	8d-J	.	.
4.G-X	[>4.e-)	[<4.c-	.
=24	=24	=24	=24
8C-XL	(>4.e-]	4.c-]	.
8E-	.	.	.
8F-XJ	.	.	.
4G-X	8d-L	4.B-	.
.	8e-	.	.
8G-	8d-J	.	.
!!LO:PB:g=original
=25	=25	=25	=25
*^	*	*	*
4.ryy	8AA-L\	8c-XL	4.A-	.
.	8C-X	8d-	.	.
.	8D-J	8c-J	.	.
!LO:TX:b:t=P:note position:problem	!	!	!	!
4.G	4E-	8B-<L	4.ryy	.
.	.	8c-<X	.	.
.	8E-	8B-<J	.	.
*	*	*v	*v	*
=26	=26	=26	=26
4.F-X\	8FF-XL	8A-<L	.
.	8AA-	8B-<	.
.	8BB-J	8A-<J	.
!LO:TX:b:t=P:note position:problem	!	!	!
4.E-	4C-X	8G-X<L	.
.	.	8A-<	.
.	8C-	8G-<J	.
=27	=27	=27	=27
4.D-\	8DD-L	8F-X<L	.
.	8FF-X	8G-X<	.
.	8GG-XJ	8F-<J	.
4.ryy	4.AA-	4.E-< 4.C-X<)	.
*v	*v	*	*
=28	=28	=28
4.EE- 4.EEE-	(>4.eee-^< 4.ee-	ff
*clefG2	*	*
8ff-XL	8ddd-L	.
8cc-X	8aa-	.
8dd-J	8bb-J	.
=29	=29	=29
8ee-L	8ccc-XL	.
8b-	8gg-X	.
8cc-XJ	8aa-J	.
8dd-L	8bb-L	.
8a-	8ff-X	.
8b-J	8gg-J	.
!!LO:LB:g=original
=30	=30	=30
8cc-XL	8aa-L	.
8g-X	8ee-	.
8a-J	8ff-XJ	.
8b-L	8gg-XL	.
8f-X	8dd-	.
8g-XJ	8ee-J	.
=31	=31	=31
8a-L	8ff-XL	.
8e-	8cc-X	.
8f-XJ	8dd-J	.
4.g-X	[>4.ee- 4.cc-	.
*clefF4	*	*
=32	=32	=32
*	*^	*
4r	4.ee-]	4.b-	.
8D-	.	.	.
4f-X 4B--	8b--L	4b--	.
.	8ee-	.	.
8D-	8dd-J	8ryy	.
*	*v	*v	*
=33	=33	=33
4f-X 4B--	8b--L	.
.	8cc-X	.
8D-	8b--J	.
4f- 4B-X	8a-L\	.
.	8b-X	.
8D-	8a-J	.
=34	=34	=34
*	*^	*
4e- 4B-	8gL	4.ryy	.
.	8a-	.	.
8E-	8gJ	.	.
4e- 4G	8b-L	4.d-	.
.	8cc	.	.
8E-	8b-J	.	.
*	*v	*v	*
=35	=35	=35
4.e- 4.A-	4.a- 4.c)	.
4.A- 4.AA-	4r	.
.	8r	.
!!LO:LB:g=original
=36	=36	=36
4.E- 4.EE-	(>4.ee-\ 4.e-\	f
8f-X>L	8dd-L	.
8c-X>	8a-	.
8d->J	8b-J	.
=37	=37	=37
8e->L	8cc-XL	.
8B->	8g-X	.
8c-X>J	8a-J	.
8d->L	8b-L	.
8A->	8f-X	.
8B->J	8g-J	.
=38	=38	=38
8c-XL	8a-L	.
8G-X	8e-	.
8A-J	8f-XJ	.
8B-L	8g-XL	.
8F-X	8d-	.
8G-J	8e-J	.
=39	=39	=39
*	*^	*
8A-L	8f-XL	8ryy	.
8E-	8c-X	4c-X	.
8F-XJ	8d-J	.	.
4.G-X	[>4.e-)	[<4.c-	.
=40	=40	=40	=40
8C-XL	(>4.e-]	4.c-X]	.
8E-	.	.	.
8F-XJ	.	.	.
4G-X	8d-L	4.B-	.
.	8e-	.	.
8G-	8d-J	.	.
!!LO:LB:g=original
=41	=41	=41	=41
*^	*	*	*
4.ryy	8AA-L<	8c-XL	4.A-	.
.	8C-X	8d-	.	.
.	8D-J	8c-J	.	.
!LO:TX:b:t=P:note position:problem	!	!	!	!
4.G	4E-	8B-<L	4.ryy	.
.	.	8c-<	.	.
.	8E-	8B-<J	.	.
*	*	*v	*v	*
=42	=42	=42	=42
4.F-X\	8FF-X\L	8A-<L	.
.	8AA-\	8B-<	.
.	8BB-\J	8A-<J	.
!LO:TX:b:t=P:note position:problem	!	!	!
4.E-	4C-X\	8G-X<L	.
.	.	8A-<	.
.	8C-\	8G-<J	.
=43	=43	=43	=43
4.D-\	8DD-L	8F-X<L	.
.	8FF-X	8G-X<	.
.	8GG-XJ	8F-<J	.
4.ryy	4.AA-	4.E-< 4.C-X<)	.
*v	*v	*	*
=44	=44	=44
4.EE-^> 4.EEE-	(>4.eee- 4.ee-	ff
*clefG2	*	*
8ff-XL	8ddd-L	.
8cc-X	8aa-	.
8dd-J	8bb-J	.
=45	=45	=45
8ee-L	8ccc-XL	.
8b-	8gg-X	.
8cc-XJ	8aa-J	.
8dd-L	8bb-L	.
8a-	8ff-X	.
8b-J	8gg-J	.
=46	=46	=46
8cc-XL\	8aa-L	.
8g-X	8ee-	.
8a-J	8ff-XJ	.
8b-L\	8gg-XL	.
8f-X	8dd-	.
8g-XJ	8ee-J	.
!!LO:LB:g=original
=47	=47	=47
*	*^	*
8a-L	4.ryy	8ff-XL	.
8e-	.	8cc-X	.
8f-XJ	.	8dd-J	.
4.g-X	[4.ee-)	4.cc-	.
*clefF4	*	*	*
=48	=48	=48	=48
4r	4.ee-]	4.b-	.
8D-	.	.	.
4f-X 4B--	(>8b--L	4b--	.
.	8ee-	.	.
8D-	8dd-J	8ryy	.
*	*v	*v	*
=49	=49	=49
4f-X 4B--	8b--L/	.
.	8cc-X	.
8D-	8b--J	.
4f- 4B-X	8a-L	.
.	8b-X	.
8D-	8a-J	.
=50	=50	=50
*	*^	*
4e- 4B-	8gL	4.ryy	.
.	8a-	.	.
8E-	8gJ	.	.
4e- 4G	8b-L	4.d-	.
.	8cc	.	.
8E-	8b-J	.	.
*	*v	*v	*
=51	=51	=51
4.e- 4.A-	4.a- 4.c)	.
4.A- 4.AA-	4r	.
!	!LO:TX:a:t=P:łuk zaczyna się skierowany w dół:problem	!
.	(>8an	.
!!LO:PB:g=original
=52	=52	=52
8D-L	4b-	.
8f-X	.	.
8A-J	8b-	.
8E-L	4b-	.
8e-	.	.
8GJ	8cc	.
=53	=53	=53
8FL	4a-	.
8c	.	.
8A-J	8a-	.
8CL	8a-L	.
.	8qb-/	.
8e-	8a-	.
8A-J	8gJ	.
=54	=54	=54
8D-L	8a-L	.
8f-X	8b-	.
8A-J	8ccJ	.
8F-XL	8dd-L	.
8d-	8ee-	.
8A-J	8ff-XJ	.
=55	=55	=55
8AA-L	4a-	.
8c	.	.
8E-J	8a-	.
8CL	8a-	.
8e-	8r	.
8A-XJ	8an	.
=56	=56	=56
8D-L	4b-	.
8f-X	.	.
8A-J	8b-	.
8E-L	4b-	.
8e-	.	.
8GJ	8cc	.
=57	=57	=57
8FL	4a-	.
8c	.	.
8A-J	8a-	.
8CL	8a-L	.
.	8qb-/	.
8e-	8a-	.
8A-J	8gJ	.
=58	=58	=58
8D-L	8a-L	.
8f-X	8b-	.
8A-J	8ccJ	.
8F-XL	8dd-L	.
8d-	8ee-	.
8A-J	8ff-XJ)	.
!!LO:LB:g=original
=59	=59	=59
*	*^	*
!	!	!LO:TX:a:t=P:łuk powinien zaczynać się przy 4.a-:problem	!
8AA-L	[>2.aa-	(>4.a-	.
8c	.	.	.
8E-J	.	.	.
8CL	.	4a-	.
8e-	.	.	.
8A-J	.	8an	.
=60	=60	=60	=60
8D-L	2.aa-]	4b-	.
8f-X	.	.	.
8A-J	.	8b-	.
8E-L	.	4b-	.
8e-	.	.	.
8GJ	.	8cc	.
*	*v	*v	*
=61	=61	=61
8FL	4a-\	.
8c	.	.
8A-J	8a-\	.
8CL	8a-L\	.
.	8qb-	.
8e-	8a-	.
8A-J	8gJ	.
=62	=62	=62
8D-L	8a-L	.
8f-X	8b-	.
8A-J	8ccJ	.
8F-XL	8dd-L	.
8d-	8ee-	.
8A-J	8ff-XJ	.
=63	=63	=63
8AA-L	4a-	.
8c	.	.
8E-J	8a-	.
8CL	8a-	.
8e-	8r	.
8A-J	8an	.
=64	=64	=64
8D-L	4b-	.
8f-X	.	.
8A-J	8b-	.
8E-L	4b-	.
8d-	.	.
8GJ	8cc	.
=65	=65	=65
8FL	4a-\	.
8c	.	.
8A-J	8a-\	.
8CL	8a-L\	.
.	8qb-	.
8e-	8a-	.
8A-J	8gJ	.
!!LO:LB:g=original
=66	=66	=66
8D-XL	8a-L	.
8f-X	8b-	.
8A-J	8ccJ	.
8F-XL	8dd-L	.
8d-	8ee-	.
8A-J	8ff-XJ	.
=67	=67	=67
*	*^	*
8AA-L	2.aa-)	[>4.a-	.
8c	.	.	.
8E-J	.	.	.
8CL	.	4a-]	.
8e-	.	.	.
8A-J	.	8cc	.
*	*v	*v	*
=68	=68	=68
4en: 4B-: 4G: 4C:	(>4ccc	fz
8r	8cc)	.
*clefG2	*	*
(>8ccL	(>4ccc	ff
8bn	.	.
8b-XJ	8cc)	.
=69	=69	=69
8anL	(>4ddd- 4aa- 4ff	.
8a-X	.	.
8gJ	8cc)	.
8g-XL	(>4ccc	.
8f	.	.
8enJ	8cc)	.
=70	=70	=70
8e-XL	(>4ddd- 4bb- 4gg 4een	.
8dn	.	.
8d-XJ	8cc)	.
*clefF4	*	*
8cL	(>4ccc	.
8Bn	.	.
8B-XJ	8cc)	.
=71	=71	=71
8AnL	(>4ddd- 4aa-X 4ff	.
8A-X	.	.
8GJ	8cc)	.
8G-XL	(>4ccc	.
8F	.	.
8F-XJ)	8cc)	.
!!LO:LB:g=original
=72	=72	=72
4E- 4EE-	4eee-^< 4ddd- 4gg 4ee-	.
8E-	8r	.
4d- 4G	(>8e-L	.
.	8en	.
8E-	8fJ	.
=73	=73	=73
4fn 4c 4A-	8f#XL\	.
.	8g	.
8E-	8a-J	.
4e-	8anL\	.
.	8b-	.
8E-	8bnJ	.
=74	=74	=74
4fn 4d- 4G	8ccL	.
.	8dd-	.
8E-	8ddnJ	.
4e-	8ee-L	.
.	8een	.
8E-	8ffJ	.
=75	=75	=75
4fn 4c 4A-	8ff#XL	.
.	8gg	.
8E-	8aa-J	.
4e-	8aanL	.
.	8bb-	.
8E-	8bbnJ	.
=76	=76	=76
4en: 4B-: 4G: 4C:	4ccc	fz
8r	8cc)	.
*clefG2	*	*
(>8ccL	(>4ccc	.
8bn	.	.
8b-XJ	8cc)	.
=77	=77	=77
8anL	(>4ddd- 4aa- 4ff	.
8a-X	.	.
8gJ	8cc)	.
8g-XL	(>4ccc	.
8f	.	.
8enJ	8cc)	.
*clefF4	*	*
!!LO:LB:g=original
=78	=78	=78
8e-XL	(>4ddd- 4bb- 4gg 4een	.
8dn	.	.
8d-XJ	8cc)	.
8cL	(>4ccc	.
8Bn	.	.
8B-XJ	8cc)	.
=79	=79	=79
8AnL	(>4ddd- 4aa- 4ff	.
8A-X	.	.
8GJ	8cc)	.
8G-XL	(>4ccc	.
8F	.	.
8F-XJ)	8cc)	.
=80	=80	=80
4E- 4EE-	4eee-^< 4ddd- 4gg 4ee-	.
8E-	8r	.
4d- 4G	(>8e-L	.
.	8en	.
8E-	8fJ	.
=81	=81	=81
4fn 4c 4A-	8f#XL	.
.	8g	.
8E-	8a-J	.
4e-	8anL	.
.	8b-	.
8E-	8bnJ	.
=82	=82	=82
4f 4d- 4G	8ccL	.
.	8dd-	.
8E-	8ddnJ	.
4e-	8ee-L	.
.	8ff	.
8r	8ee-J	.
=83	=83	=83
2.rF	8ffL	.
.	8ee-	.
.	8ffJ	.
.	8ee-L\	.
.	8f	.
.	8e-J)	.
=84	=84	=84
*	*^	*
8AA-L	(>[>4.g-X^>	4.c	p
8B-	.	.	.
8A-J	.	.	.
8AA-L	8g-L]	4.c	.
8A-	8f	.	.
8G-XJ	8e-J	.	.
!!LO:LB:g=original
=85	=85	=85	=85
8D-L	4f	4.d-	.
8A-	.	.	.
8FJ	8f	.	.
8AA-L	8fL	4.c	.
8c	8g	.	.
8FJ	8a-J	.	.
=86	=86	=86	=86
8BB-L	4g	4.f	.
8d-	.	.	.
8FJ	8g	.	.
8CL	8gL	4.en	.
8c	8a-	.	.
8GJ	8b-J	.	.
=87	=87	=87	=87
8FL	4a-	4.f	.
8c	.	.	.
8A-J	8a-	.	.
8C-XL	4a-	4.e-	.
8c-X	.	.	.
8FJ	8a-	.	.
=88	=88	=88	=88
8BB-L	4a-	4.dn	.
8B-	.	.	.
8FJ	8a-	.	.
8C-XL	4a-	4.e-	.
8c-X	.	.	.
8FJ	8a-	.	.
=89	=89	=89	=89
8BB-L	4a-	4.dn	.
8B-	.	.	.
8FJ	8a-	.	.
8C-XL	4a-	4.e-	.
8c-X	.	.	.
8FJ	8a-	.	.
=90	=90	=90	=90
8C-XL	4a-	4.dn	.
8c-X	.	.	.
8FJ	8a-	.	.
8BBnL	4g#X	4.d	.
8Bn	.	.	.
8EnJ	8g#	.	.
=91	=91	=91	=91
8AAnL	4an	4.dn	.
8An	.	.	.
8EnJ	8a	.	.
8AAL	8gnL	&(<4.c#X	.
8A	8a	.	.
8EJ	8gJ	.	.
!!LO:PB:g=original
=92	=92	=92	=92
8BB--L	[>4.g-X	4.d-&)	.
8B--	.	.	.
8E-J	.	.	.
8AA-L	8g-L]	4.c	.
8A-	8f	.	.
8G-XJ	8e-J	.	.
=93	=93	=93	=93
8D-L	4f	4.d-	.
8A-	.	.	.
8FJ	8f	.	.
8AA-L	8fL	4.c	.
8c	8g	.	.
8FJ	8a-J	.	.
=94	=94	=94	=94
8BB-L	4gn	4.f	.
8d-	.	.	.
8FJ	8g	.	.
8CL	8gL	4.en	.
8c	8a-	.	.
8GJ	8b-J	.	.
=95	=95	=95	=95
8FL	4a-	4.f	.
8c	.	.	.
8A-J	8a-	.	.
!	!LO:TX:b:Bi:t=cres _:problem:dynamics with extention lines	!	!
!	!	!	!LO:HP:b:Bi:t=cres:ext=ud
8E-L	4an	4.g-X	<
8c	.	.	.
8G-XJ	8a	.	.
=96	=96	=96	=96
8DnL	4b-	4.f	.
8B-	.	.	.
8FJ	8b-	.	.
8D-XL	4bn	4.a- 4.f	.
8Bn	.	.	.
8FJ	8b	.	.
=97	=97	=97	=97
8CL	4cc	4.a- 4.f	.
8c	.	.	.
8FJ	8cc	.	.
8BBnL	4dd-	4.a- 4.f	.
8d-	.	.	.
8FJ	8dd-	.	.
=98	=98	=98	=98
8CnL	4cc	4.a-	.
8f	.	.	.
8cJ	8aa-	.	.
8CL	4aa-	4.cc 4.b-	.
8en	.	.	.
8cJ	8gg	.	.
!!LO:LB:g=original
=99	=99	=99	=99
!	!LO:TX:b:Bi:t=dim _:problem:dynamics with extention lines	!	!
!	!	!	!LO:HP:b:Bi:t=dim:ext=ud
8FL	4gg	4.cc 4.b-	[ >
8en	.	.	.
8cJ	8ff	.	.
8FL	4ff	4cc 4a-	.
8f	.	.	.
8cJ	8f)	8ryy	]]
=100	=100	=100	=100
!	!	!	!LO:DY:rj
8AA-L	(>[>4.g-X	4.c	p
8B-	.	.	.
8A-J	.	.	.
8AA-L	8g-L]	4.c	.
8A-	8f	.	.
8G-XJ	8e-J	.	.
=101	=101	=101	=101
8D-L	4f	4.d-	.
8A-	.	.	.
8FJ	8f	.	.
8AA-L	8fL	4.c	.
8c	8g	.	.
8FJ	8a-J	.	.
=102	=102	=102	=102
8BB-L	4g	4.f	.
8d-	.	.	.
8FJ	8g	.	.
8CL	8gL	4.en	.
8c	8a-	.	.
8GJ	8b-J	.	.
=103	=103	=103	=103
8FL	4a-	4.f	.
8c	.	.	.
8A-J	8a-	.	.
8C-XL	4a-	4.e-	.
8c-X	.	.	.
8FJ	8a-	.	.
=104	=104	=104	=104
8BB-L	4a-	4.dn	.
8B-	.	.	.
8FJ	8a-	.	.
8C-XL	4a-	4.e-	.
8c-X	.	.	.
8FJ	8a-	.	.
=105	=105	=105	=105
8BB-L	4a-	4.dn	.
8B-	.	.	.
8FJ	8a-	.	.
8C-XL	4a-	4.e-	.
8c-X	.	.	.
8FJ	8a-	.	.
!!LO:LB:g=original
=106	=106	=106	=106
8C-XL	4a-	4.dn	.
8c-X	.	.	.
8FJ	8a-	.	.
8BBnL	4g#X	4.d	.
8Bn	.	.	.
8EnJ	8g#	.	.
=107	=107	=107	=107
8AAnL	4an	4.dn	.
8An	.	.	.
8EnJ	8a	.	.
8AAL	8gnL	[4.c#X	.
8A	8a	.	.
8EJ	8gJ	.	.
=108	=108	=108	=108
8BB--L	[>4.g-X	4.d-]	.
8B--	.	.	.
8E-J	.	.	.
8AA-L	8g-L]	4.c	.
8A-	8f	.	.
8G-XJ	8e-J	.	.
=109	=109	=109	=109
8D-L	4f	4.d-	.
8A-	.	.	.
8FJ	8f	.	.
8AA-L	8fL	4.c	.
8c	8g	.	.
8FJ	8a-J	.	.
=110	=110	=110	=110
8BB-L	4gn	4.f	.
8d-	.	.	.
8FJ	8g	.	.
8CL	8gL	4.en	.
8c	8a-	.	.
8GJ	8b-J	.	.
=111	=111	=111	=111
8FL	4a-	4.f	.
8c	.	.	.
8A-J	8a-	.	.
!	!LO:TX:b:Bi:t=cresc _:problem:dynamics with extention lines	!	!
!	!	!	!LO:HP:b:Bi:t=cresc:ext=ud
8E-L	4an	4.g-X	<
8c	.	.	.
8G-XJ	8a	.	.
!!LO:LB:g=original
=112	=112	=112	=112
8DnL	4b-	4.f	.
8B-	.	.	.
8FJ	8b-	.	.
8D-XL	4bn	4.a- 4.f	.
8Bn	.	.	.
8FJ	8b	.	.
=113	=113	=113	=113
8CL	4cc	4.a- 4.f	.
8c	.	.	.
8FJ	8cc	.	.
8BBnL	4dd-	4.a- 4.f	.
8d-	.	.	.
8FJ	8dd-	.	.
=114	=114	=114	=114
8CnL	4cc	4.a-	.
8f	.	.	.
8cJ	8aa-	.	.
8CL	4aa-	4.cc 4.b-	.
8en	.	.	.
8cJ	8gg	.	[
=115	=115	=115	=115
8FL	4gg	4.cc 4.b-	>
8en	.	.	.
8cJ	8ff	.	.
8FL	4ff	4cc 4a-	.
8f	.	.	.
8cJ	8f)	8ryy	.
=116	=116	=116	=116
*^	*	*	*
4C 4CC	4.ryy	4cc^< 4c	4.ryy	.
8r	.	8r	.	.
*clefG2	*	*	*	*
8fL	4.f	(>8ddd-L	4.aa-	.
8dd-	.	8eee-	.	.
8a-J	.	8ddd-J	.	.
=117	=117	=117	=117	=117
8e-L	4.e-	4.ccc	8cccL	.
8cc	.	.	8ee-	.
8gJ	.	.	8ggJ	.
8d-L	4.d-	8bb-L	4.ff	.
8b-	.	8ccc	.	.
8fJ	.	8bb-J	.	.
=118	=118	=118	=118	=118
8cL	4.c	4.aa-	8aa-L	.
8a-	.	.	8cc	.
8e-J	.	.	8ee-J	.
8B-L	4.B-	8ggL	4.dd-	.
8g	.	8aa-	.	.
8d-J	.	8ggJ	.	.
*clefF4	*	*	*	*
!!LO:LB:g=original
=119	=119	=119	=119	=119
4.A-	8A-L	4.ff	8ffL	.
.	8f	.	8a-	.
.	8cJ	.	8ccJ	.
4.G	8GL	8ee-L	4.b-	.
.	8e-	8ff	.	.
.	8B-J	8ee-J	.	.
=120	=120	=120	=120	=120
4.F	8FL	4.dd-	8dd-L	.
.	8d-	.	8f	.
.	8A-J	.	8a-J	.
4.E-	8E-L	8ccL	4.g	.
.	8c	8dd-	.	.
.	8GJ	8ccJ	.	.
=121	=121	=121	=121	=121
4.D-	8D-L	4.b-	8b-L	.
.	8B-	.	8d-	.
.	8FJ	.	8fJ	.
4.C	8CL	8a-L	4.e-	.
.	8A-	8b-	.	.
.	8E-J	8a-J	.	.
=122	=122	=122	=122	=122
4.BB-	8BB-L	4g	4.f 4.d-X	.
.	8G	.	.	.
.	8FJ	8g	.	.
.	.	16qqg/LL	.	.
.	.	16qqb-/JJ	.	.
4.ryy	8BBnL	4a-	4.f 4.dn	.
.	8dn	.	.	.
.	8GJ	8g	.	.
*v	*v	*	*	*
*	*v	*v	*
=123	=123	=123
8CL	4.g 4.en	.
8c	.	.
8GJ	.	.
8EnL\	4.cc^< 4.c)	.
8C	.	.
8GGJ	.	.
=124	=124	=124
*^	*^	*
4CC	4.ryy	4.ryy	4ccc 4cc	.
8r	.	.	8r	.
*clefG2	*	*	*	*
!LO:TX:a:t=P:w źródle brak kaudy nuty 4.ff:problem	!	!	!	!
*	*	*8va	*	*
4.ff	8ffL	(>8dddd-L	4.aaa-	.
.	8ddd-	8eeee-	.	.
.	8aa-J	8dddd-J	.	.
!!LO:LB:g=original
=125	=125	=125	=125	=125
4.ee-	8ee-L	4.cccc	8ccccL	.
.	8ccc	.	8eee-	.
.	8ggJ	.	8gggJ	.
4.dd-	8dd-L	8bbb-L	4.fff	.
.	8bb-	8cccc	.	.
.	8ffJ	8bbb-J	.	.
=126	=126	=126	=126	=126
4.cc	8ccL	4.aaa-	8aaa-L	.
.	8aa-	.	8ccc	.
.	8ee-J	.	8eee-J	.
4.b-	8b-L	8gggL	4.ddd-	.
.	8gg	8aaa-	.	.
.	8dd-J	8gggJ	.	.
=127	=127	=127	=127	=127
4.a-	8a-L	4.fff	8fffL	.
.	8ff	.	8aa-	.
.	8ccJ	.	8cccJ	.
4.g	8gL	8eee-L	4.bb-	.
.	8ee-	8fff	.	.
.	8b-J	8eee-J	.	.
=128	=128	=128	=128	=128
4.f	8fL	4.ddd-	8ddd-L	.
.	8dd-	.	8ff	.
.	8a-J	.	8aa-J	.
4.e-	8e-L	8cccL	4.gg	.
.	8cc	8ddd-	.	.
.	8gJ	8cccJ	.	.
=129	=129	=129	=129	=129
4.d-	8d-L	4.bb-	8bb-L	.
.	8b-	.	8dd-	.
.	8fJ	.	8ffJ	.
4.c	8cL	8aa-L	4.ee-	.
.	8a-	8bb-	.	.
.	8e-J	8aa-J	.	.
=130	=130	=130	=130	=130
4.B-	8B-L	4gg	4.ff 4.dd-X	.
.	8g	.	.	.
.	8d-XJ	8gg	.	.
.	.	16qqgg/LL	.	.
.	.	16qqbb-/JJ	.	.
4.Bn	8BnL	4aa-	4.ff 4.ddn	.
.	8ddn	.	.	.
.	[>8gJ	8gg	.	.
*	*	*X8va	*	*
*v	*v	*	*	*
*	*v	*v	*
=131	=131	=131
4g] 4c	4gg 4een	.
8r	8ccc	.
4r	4cc	.
8r	8cc)	.
*clefF4	*	*
!!LO:PB:g=original
=132	=132	=132
*	*^	*
8AA-L	(>[>4.g-X	4.c	.
8B-	.	.	.
8A-J	.	.	.
8AA-L	8g-L]	4c	.
8A-	8f	.	.
8G-XJ	8e-J	8ryy	.
=133	=133	=133	=133
8D-L	4f	4.d-	.
8A-	.	.	.
8FJ	8f	.	.
8AA-L	8fL	4.c	.
8c	8g	.	.
8FJ	8a-J	.	.
=134	=134	=134	=134
8AA-L	4g	4.f	.
!!!SIC@EN: 8AA- instead of 8BB-
8d-	.	.	.
8FJ	8g	.	.
8CL	8gL	4.en	.
8c	8a-	.	.
8GJ	8b-J	.	.
=135	=135	=135	=135
8FL	4a-	4.f	.
8c	.	.	.
8A-J	8a-	.	.
8C-XL	4a-	4.e-	.
8c-X	.	.	.
8FJ	8a-	.	.
=136	=136	=136	=136
8BB-L	4a-	4.dn	.
8B-	.	.	.
8FJ	8a-	.	.
8C-XL	4a-	4.e-	.
8c-X	.	.	.
8FJ	8a-	.	.
=137	=137	=137	=137
8BB-L	4a-	4.dn	.
8B-	.	.	.
8FJ	8a-	.	.
8C-XL	4a-	4.e-	.
8c-X	.	.	.
8FJ	8a-	.	.
=138	=138	=138	=138
8C-XL	4a-	4.dn	.
8c-X	.	.	.
8FJ	8a-	.	.
8BBnL	4g#X	4.d	.
8Bn	.	.	.
8EnJ	8g#	.	.
!!LO:LB:g=original
=139	=139	=139	=139
8AAnL	4an	4.dn	.
8An	.	.	.
8EnJ	8a	.	.
8AAL	8gnL	[4.c#X	.
8A	8a	.	.
8EJ	8gJ	.	.
=140	=140	=140	=140
8BB--L	[>4.g-	4.d-]	.
8B--	.	.	.
8E-J	.	.	.
8AA-L	8g-L]	4.c	.
8A-	8f	.	.
8G-XJ	8e-J	.	.
=141	=141	=141	=141
8D-L	4f	4.d-	.
8A-	.	.	.
8FJ	8f	.	.
8AA-L	8fL	4.c	.
8c	8g	.	.
8FJ	8a-J	.	.
=142	=142	=142	=142
8BB-L	4gn	4.f	.
8d-	.	.	.
8FJ	8g	.	.
8CL	8gL	4.en	.
8c	8a-	.	.
8GJ	8b-J	.	.
=143	=143	=143	=143
8FL	4a-	4.f	.
8c	.	.	.
8A-J	8a-	.	.
!	!LO:TX:b:Bi:t=cres _:problem:dynamics with extention lines	!	!
!	!	!	!LO:HP:b:Bi:t=cres:ext=ud
8E-L	4an	4.g-X	<
8c	.	.	.
8G-XJ	8a	.	.
=144	=144	=144	=144
8DnL	4b-	4.f	.
8B-	.	.	.
8FJ	8b-	.	.
8D-XL	4bn	4.a- 4.f	.
8Bn	.	.	.
8FJ	8b	.	.
=145	=145	=145	=145
8CL	4cc	4.a- 4.f	.
8c	.	.	.
8FJ	8cc	.	.
8BBnL	4dd-	4.a- 4.f	.
8d-	.	.	.
8FJ	8dd-	.	.
!!LO:LB:g=original
=146	=146	=146	=146
8CnL	4cc	4.a-	.
8f	.	.	.
8cJ	8aa-	.	.
8CL	4aa-	4.cc 4.b-	.
8en	.	.	.
8cJ	8gg	.	[[
=147	=147	=147	=147
8FL	4gg	4.cc 4.b-	>
8en	.	.	.
8cJ	8ff	.	.
8FL	4ff	4cc 4a-	.
8f	.	.	.
8cJ	8f)	8ryy	.
=148	=148	=148	=148
4A- 4E- 4AA-	4cc^< 4a- 4e- 4c	4.ryy	fz
8r	8r	.	.
!	!	!	!LO:DY:rj
4.D- 4.AA- 4.DD-	(>8b-L	4.f-X^< 4.d-	fz
.	8cc	.	.
.	8b-J)	.	.
=149	=149	=149	=149
4AA- 4AAA-	(>4a-	4.e-^< 4.c	fz
8r	8a-	.	.
8D-L	4cc	4.f	.
8A-	.	.	.
8D-J	8cc)	.	.
=150	=150	=150	=150
8CL	(>4a-	4.e-	.
8A-	.	.	.
8CJ	8a-	.	.
8D-L	4cc	4.f	.
8A-	.	.	.
8DnJ	8cc	.	.
=151	=151	=151	=151
4G 4E-	8b-L	4.d-	.
.	8cc	.	.
8r	8b-J	.	.
4.E- 4.EE-	8gL	4.ryy	.
.	8f	.	.
.	8e-J)	.	.
=152	=152	=152	=152
4A- 4E- 4AA-	4cc^< 4a- 4e- 4c	4.ryy	fz
8r	8r	.	.
!	!	!	!LO:DY:rj
4D- 4AA- 4DD-	(>8b-L	4.f-X^< 4.d-	fz
.	8cc	.	.
8r	8b-J	.	.
!!LO:LB:g=original
=153	=153	=153	=153
!	!	!	!LO:DY:rj
4AA- 4AAA-	4a-)	4.e-^< 4.c	fz
8r	(>8a-	.	.
8D-L	4cc)	4.f	.
8A-	.	.	.
8D-J	(>8cc	.	.
=154	=154	=154	=154
8CL	4a-)	4.e-	.
8A-	.	.	.
8CJ	(>8a-	.	.
8D-L	4cc	4.f	.
8A-	.	.	.
8DnJ	8cc	.	.
=155	=155	=155	=155
4G 4E-	8b-L	4.d-	.
.	8cc	.	.
8r	8b-J	.	.
4.E- 4.EE-	8anL	4.g^< 4.d-	.
.	8b-	.	.
.	8ee-J)	.	.
=156	=156	=156	=156
4A- 4E- 4AA-	4cc^< 4a- 4e- 4c	4.ryy	fz
8r	8r	.	.
!	!	!	!LO:DY:rj
4.D- 4.AA- 4.DD-	(>8b-L	4.f-X^< 4.d-	fz
.	8cc	.	.
.	8b-J)	.	.
=157	=157	=157	=157
!	!	!	!LO:DY:rj
4AA- 4AAA-	(>4a-	4.e-^< 4.c	fz
8r	8a-	.	.
8D-L	4cc	4.f	.
8A-	.	.	.
8D-J	8cc)	.	.
=158	=158	=158	=158
8CL	(>4a-	4.e-	.
8A-	.	.	.
8CJ	8a-	.	.
8D-L	4cc	4.f	.
8A-	.	.	.
8DnJ	8cc	.	.
=159	=159	=159	=159
4G 4E-	8b-L	4.d-	.
.	8cc	.	.
8r	8b-J	.	.
4.E- 4.EE-	8gL	4.ryy	.
.	8f	.	.
.	8e-J	.	.
!!LO:LB:g=original
=160	=160	=160	=160
!	!	!	!LO:DY:rj
4A- 4E- 4AA-	4cc^< 4a- 4e- 4c)	4.ryy	fz
8r	8r	.	.
!	!	!	!LO:DY:rj
4D- 4AA- 4DD-	(>8b-L	4.f-X^< 4.d-	fz
.	8cc	.	.
8r	8b-J	.	.
=161	=161	=161	=161
4AA- 4AAA-	4a-)	4.e- 4.c	fz
8r	(>8a-	.	.
8D-L	4cc)	4.f	.
8A-	.	.	.
8D-J	(>8cc	.	.
=162	=162	=162	=162
8CL	4a-	4.e-	.
8A-	.	.	.
8CJ	8a-	.	.
8D-L	4cc	4.f	.
8A-	.	.	.
8DnJ	8cc	.	.
=163	=163	=163	=163
4G 4E-	8b-L	4.d-	.
.	8ee-	.	.
8r	8e-J	.	.
4E- 4EE-	8ee-L/	4.ryy	.
.	8e-	.	.
8r	8ee-J)	.	.
*	*v	*v	*
=164	=164	=164
!	!	!LO:DY:rj
4EE- 4EEE-	(>8cc-X^<L	ff
!	!LO:TX:b:Bi:t=poco a poco più animato.:dur=11e:problem:text with extention lines	!
.	8dd-	.
8r	8ee-J	.
4.f-X 4.c-X 4.A- 4.E-	8ff-X^<L	.
.	8gg-X	.
.	8aa-J	.
=165	=165	=165
4.f 4.c 4.A- 4.E-	8bb-^<L	.
!!!SIC@EN: 4.f and 4.c are missing flat accidentals
.	8ccc-X	.
.	8ddd-J	.
4.f 4.c 4.A- 4.E-	8eee-^<L	.
!!!SIC@EN: there should be 4.f- and 4.c- instead of 4.f and 4.c
.	8fff-X	.
.	8ddd-J	.
=166	=166	=166
4.f-X 4.c-X 4.A- 4.E-	8ccc-X^<L	.
.	8bb-	.
.	8aa-J	.
4.f- 4.c- 4.A- 4.E-	8gg-X^<L	.
.	8ff-X	.
.	8ee-J	.
!!LO:LB:g=original
=167	=167	=167
4.f 4.c 4.A- 4.E-	8dd-^<L	.
!!!SIC@EN: 4.f and 4.c are missing flat accidentals
.	8cc-X	.
.	8a-J	.
4.e- 4.B- 4.G 4.E-	8b-^<L\	.
.	8ee-	.
.	8e-J	.
=168	=168	=168
4.E- 4.EE-	8f-XL	.
.	8g-X	.
.	8a-J	.
4.f-X 4.c-X 4.A- 4.E-	8b-^<L	.
.	8cc-X	.
.	8dd-J	.
=169	=169	=169
4.f-X 4.c-X 4.A- 4.E-	8ee-^<L	.
.	8ff-X	.
.	8gg-yJ	.
4.f- 4.c- 4.A- 4.E-	8aa-^<L	.
.	8bb-	.
.	8ccc-XJ	.
=170	=170	=170
4.f-X 4.c-X 4.A- 4.E-	8aa-^<L	.
.	8bb-	.
.	8aa-J	.
4.f- 4.c- 4.A- 4.E-	8gg-X^<L	.
.	8aa-	.
.	8gg-J	.
=171	=171	=171
4.f-X 4.c-X 4.A- 4.E-	8ff-X^<L	.
.	8gg-X	.
.	8ff-J	.
4.e- 4.B- 4.G 4.E-	4.ee-^<)	.
=172	=172	=172
4EE- 4EEE-	(>4.ff-X^<	.
8r	.	.
4.f-X 4.c-X 4.A- 4.E-	8gg-X^<L	.
.	8aa-	.
.	8bb-J	.
!!LO:PB:g=original
=173	=173	=173
4.f-X 4.c-X 4.A- 4.E-	8ccc-X^<L	.
.	8ddd-	.
.	8eee-J	.
*	*8va	*
4.f- 4.c- 4.A- 4.E-	8fff-X^<L	.
.	8ggg-X	.
.	8aaa-J	.
=174	=174	=174
4.f-X 4.c-X 4.A- 4.E-	8ggg-X^<L	.
.	8aaa-	.
.	8fff-XJ	.
4.f- 4.c- 4.A- 4.E-	8eee-^<L	.
.	8fff-	.
.	8ddd-J	.
*	*X8va	*
=175	=175	=175
4.f-X 4.c-X 4.A- 4.E-	8ccc-X^<L	.
.	8ddd-	.
.	8ccc-J	.
4.e- 4.B- 4.G 4.E-	8bb-^<L	.
.	8eee-	.
.	8ee-J	.
=176	=176	=176
4.E- 4.EE-	8bb-L	.
.	8aa-	.
.	8gg-XJ	.
4.a- 4.c 4.A- 4.E-	8aa-^<L	.
!!!SIC@EN: 4.c is missing a flat accidental
!!!SIC@EN: there should be 4.f- instead of 4.a-
.	8gg-	.
.	8ff-XJ	.
=177	=177	=177
4.f-X 4.c-X 4.A- 4.E-	8gg-X^<L	.
.	8ff-X	.
.	8ee-J	.
4.f- 4.c- 4.A- 4.E-	8ff-^<L	.
.	8ee-	.
.	8dd-J	.
=178	=178	=178
4e- 4d- 4G 4E-	8cc^<L/	.
.	8bn	.
8r	8b-XJ	.
4r	8anL	>
.	8a-X	.
8r	8gJ	.
=179	=179	=179
2.rF	8g-XL	.
.	8f	.
.	8enJ	.
.	8e-XL	.
.	8dn	.
.	8d-XJ)	]
!!LO:LB:g=original
=180	=180	=180
*	*^	*
!	!LO:N:vis=2	!	!
8AA-L	8cL	2c	.
!	!LO:TX:b:i:t=più animato.	!	!
8A-	8d-	.	.
8E-J	8dnJ	.	.
8AA-L	8e-L	.	.
8A-	8g	4ryy	.
8E-J	8fJ	.	.
*	*v	*v	*
=181	=181	=181
8GGL	4e- 4B-	.
8G	.	.
8E-J	(<8e- 8B-	.
8FFL\	4a- 4d-)	.
8F	.	.
!	!LO:TX:b:t=P:cross-staff slur:problem	!
8D-J	(<8a- [<8d-	.
=182	=182	=182
*	*^	*
8EEnL	4d-] 4G<)	4.ryy	.
8Eni	.	.	.
8D-J	8G<	.	.
8EEL\	4g	[<4.c	.
8E	.	.	.
8CJ	(>8g	.	.
=183	=183	=183	=183
8EE-XL\	4G-X<	4.c\])	.
8E-	.	.	.
!	!LO:TX:b:t=P:cross-staff slur:problem	!	!
8CJ	(>8G-<	.	.
8EE-L\	4g-X	4.c-X)	.
8E-	.	.	.
8C-XJ	(<8g-	.	.
=184	=184	=184	=184
8EE-L	[>2.f^>)	8F<L	.
8E-	.	8G<	.
8FFJ	.	8An<J	.
8DD-L	.	8B-<L	.
8D-	.	8c<	.
8FFJ	.	8d-<J	.
=185	=185	=185	=185
8CCL	4f]	4e-	.
8C	.	.	.
8FFJ	(>8f 8e-	8ryy	.
8BBB-L	4.ryy	4dd- 4b-)	.
8BB-	.	.	.
8FFJ	.	(>8dd- 8b-	.
*	*v	*v	*
=186	=186	=186
8EE-L	4e- 4d-)	.
8G	.	.
8E-J	(>8e- 8d-	.
8EE-L	4cc 4a-)	.
8A-	.	.
8E-J	(>8cc	.
!!LO:LB:g=original
=187	=187	=187
*	*^	*
8EE-L\	4b-)	4.d-	.
8G	.	.	.
8E-J	(>8b-	.	.
8AA-L	4a-)	4.c	.
8A-	.	.	.
8E-J	(>8a-	.	.
=188	=188	=188	=188
!	!LO:N:vis=2.	!	!
8AA-L	8cL)	2.c	.
8A-	8d-	.	.
8E-J	8dnJ	.	.
8AA-L	8e-L	.	.
8A-	8g	.	.
8E-J	8fJ	.	.
*	*v	*v	*
=189	=189	=189
8GGL	4e- 4B-	.
8G	.	.
8E-J	(<8e- 8B-	.
8FFL\	4a- 4d-)	.
8F	.	.
!	!LO:TX:b:t=P:cross-staff slur:problem	!
8D-J	(<8a- [<8d-	.
=190	=190	=190
*	*^	*
8EEnL	4G<)	4d-]	.
8Eni	.	.	.
!	!LO:TX:b:t=P:cross-staff slur:problem	!	!
8D-J	(>8G<	8ryy	.
8EEL\	4g	[<4.c)	.
8E	.	.	.
8CJ	(>8g	.	.
=191	=191	=191	=191
8EE-XL	4G-X<	4.c])\	.
8E-	.	.	.
!	!LO:TX:b:t=P:cross-staff slur:problem	!	!
8CJ	(>8G-<	.	.
8EE-L\	4g-X	4.c-X)	.
8E-	.	.	.
8C-XJ	(<8g-	.	.
=192	=192	=192	=192
8EE-L	[>2.f^>)	8F<L	.
8E-	.	8G<	.
8FFJ	.	8An<J	.
8DD-L	.	8B-<L	.
8D-	.	8c<	.
8FFJ	.	8d-<J	.
=193	=193	=193	=193
8CCL	4f]	4e-	.
8C	.	.	.
8FFJ	(>8f 8e-	2ryy	.
8BBB-L	4dd- 4b-)	.	.
8BB-	.	.	.
8FFJ	(>8dd- 8b-	.	.
*	*v	*v	*
!!LO:LB:g=original
=194	=194	=194
8EE-L\	4e- 4d-)	.
8G	.	.
8E-J	(>8e- 8d-	.
8EE-L\	4cc 4a-)	.
8A-	.	.
8E-J	(8cc	.
=195	=195	=195
*	*^	*
8EE-L\	4b-)	4.d-	.
8G	.	.	.
8E-J	(>8b-	.	.
8AA-L	4a-)	4.c	.
8A-	.	.	.
8E-J	8a-	.	.
=196	=196	=196	=196
!	!LO:N:vis=2	!LO:N:n=2:vis=4	!
4.E- 4.EE-	(>[>2.ee-^>	4.ee- 4.e-	f
8f-X>L	.	8dd-L/	.
8c-X>	.	8a-	.
8d->J	.	8b-J	.
=197	=197	=197	=197
!	!	!LO:TX:a:t=P:note position:problem	!
8e->L	2.ee-]	8cc-XL/	.
8B->	.	8g-X	.
8c-X>J	.	8a-J	.
8d->L	.	8b-L/	.
8A-	.	8f-X	.
8B-J	.	8g-J	.
*	*v	*v	*
=198	=198	=198
8c-XL	8a-L	.
8G-X	8e-	.
8A-J	8f-XJ	.
8B-L	8g-XL	.
8F-X	8d-	.
8G-J	8e-J	.
=199	=199	=199
8A-L	8f-XL	.
8E-	8c-X	.
8F-XJ	8d-J	.
4.G-X	[>4.e- [<4.c-	.
!!LO:LB:g=original
=200	=200	=200
*	*^	*
8C-XL	4.e-] 4.c-X]	4.ryy	.
8E-	.	.	.
8F-XJ	.	.	.
4G-X	8d-L	4.B-	.
.	8e-	.	.
8G-	8d-J	.	.
=201	=201	=201	=201
8AA-L\	8c-XL	4.A-	.
8C	8d-	.	.
!!!SIC@EN: 8C is missing a flat accidental
8D-J	8c-J	.	.
!	!	!LO:TX:b:t=P:note position:problem	!
4E-	8B-<L	4.G<\	.
.	8c-<	.	.
8E-	8B-<J	.	.
=202	=202	=202	=202
8FF-XL	8A-<L	4.F-X<	.
8AA-	8B-<	.	.
8BB-J	8A-<J	.	.
!	!	!LO:TX:b:t=P:w źródle nuta 4.E- nie posiada kaudy:problem	!
4C-X\	8G-X<L	4.E-<\	.
.	8A-<	.	.
8C-	8G-<J	.	.
=203	=203	=203	=203
8DD-L	8F-X<L	4.D-<\	.
8FF-X	8G<	.	.
!!!SIC@EN: 8G< is missing a flat accidental
8GG-XJ	8F-<J	.	.
!	!	!LO:TX:b:t=P:note position:problem	!
4.AA-	4.E-<)	4.C-X<	.
=204	=204	=204	=204
4.EE- 4.EEE-	4.eee-^< 4.ee-	4.ryy	.
*clefG2	*	*	*
8ff-XL	(>4.eee-	8ddd-^<L	.
8cc-X	.	8aa-	.
8dd-J	.	8bb-J)	.
=205	=205	=205	=205
8ee-L	(>4.eee-	8ccc-X^<L	.
8b-	.	8gg-X	.
8cc-XJ	.	8aa-J)	.
8dd-L	(>4.eee-	8bb-^<L	.
8a-	.	8ff-X	.
8b-J	.	8gg-J)	.
!!LO:LB:g=original
=206	=206	=206	=206
8ccL	(>4.eee-	8aa-^<L	.
!!!SIC@EN: 8ccL is missing a flat accidental
8g-X	.	8ee-	.
8a-J	.	8ff-XJ)	.
8b-L	(>4.eee-	8gg-X^<L	.
8f-X	.	8dd-	.
8g-J	.	8ee-J)	.
*	*v	*v	*
=207	=207	=207
8a-L	(>8ff-X^<L	.
8e-	8cc-X	.
8f-XJ	8dd-J)	.
4.g-X	(>4.ee-^< 4.cc-X	.
*clefF4	*	*
=208	=208	=208
*	*^	*
4r	4.b-	4.ryy	.
8D-	.	.	.
4f-X 4B--	8b--L	4.b--	.
.	8ee-	.	.
8D-	8dd-J	.	.
*	*v	*v	*
=209	=209	=209
4f-X 4B--	8b--L/	.
.	8cc-X	.
8D-	8b--J	.
4f- 4B-X	8a-L	.
.	8b-X	.
8D-	8a-J	.
=210	=210	=210
*	*^	*
4e- 4B-	8gL	4.ryy	.
.	8a-	.	.
8E-	8gJ	.	.
4e- 4G	8b-L	4.d-	.
.	8cc	.	.
8E-	8b-J	.	.
=211	=211	=211	=211
4.e- 4.A-	4.a-)	4.c	.
4.A- 4.AA-	4r	4.ryy	.
.	8r	.	.
!!LO:PB:g=original
=212	=212	=212	=212
4.E- 4.EE-	(>[2.ee-	4.ee-^< 4.e-	.
8f-XL	.	8dd-L	.
8c-X	.	8a-	.
8d-J	.	8b-J	.
=213	=213	=213	=213
8e-L	2.ee-]	8cc-XL	.
8B-	.	8g-X	.
8c-XJ	.	8a-J	.
8d-L	.	8b-L	.
8A-	.	8f-X	.
8B-J	.	8g-J	.
*	*v	*v	*
=214	=214	=214
8c-XL	8a-L	.
8G-X	8e-	.
8A-J	8f-XJ	.
8B-L	8g-XL	.
8F-X	8d-	.
8G-J	8e-J	.
=215	=215	=215
*	*^	*
8A-L	8f-XL	8ryy	.
8E-	8c-X	4c-X	.
8F-XJ	8d-J	.	.
4.G-X	[>4.e-^< [<4.c-	4.ryy	.
=216	=216	=216	=216
8C-XL	4.e-] 4.c-X]	4.ryy	.
8E-	.	.	.
8F-XJ	.	.	.
4G-X	8d-L	4.B-	.
.	8e-	.	.
8G-	8d-J	.	.
=217	=217	=217	=217
8AA-L\	8c-XL	4.A-	.
8C-X	8d-	.	.
8D-J	8c-J	.	.
4E-	8B-L	4.G	.
.	8c-	.	.
8E-	8B-J	.	.
!!LO:LB:g=original
=218	=218	=218	=218
8FF-XL	8A-<L	4.F-X<	.
8AA-	8B-<	.	.
8BB-J	8A-<J	.	.
!	!	!LO:TX:b:t=P:note position:problem	!
4C-X\	8G-X<L	4.E-<\	.
.	8A-<	.	.
8C-	8G-<J	.	.
=219	=219	=219	=219
8DD-L	8F-X<L	4.D-<\	.
8FF-X	8G-X<	.	.
8GG-XJ	8F-<J	.	.
!	!	!LO:TX:b:t=P:note position:problem	!
4.AA-	4.E-<)	4.C-X<	.
*	*v	*v	*
=220	=220	=220
4EE- 4EEE-	4.eee-^< 4.ee-	.
8EE-	.	.
4E-	(>8ddd-^<L 8bb- 8dd-	.
.	8ff	.
8EE-	8ggJ)	.
=221	=221	=221
4E-	(>8ccc-X^<L 8aa- 8cc-X	.
.	8ee-	.
8EE-	8ff-XJ)	.
4E-	(>8bb-^<L 8gg-X 8b-	.
.	8dd-	.
8EE-	8ee-J)	.
=222	=222	=222
4E-	(>8aa-^<L 8ff-X 8a-	.
.	8cc-X	.
8EE-	8dd-J)	.
4E-	(>8gg-X^<L 8ee- 8g-X	.
.	8b-	.
8EE-	8cc-J)	.
=223	=223	=223
4E-	(>8ff-XL 8dd- 8f-X\	.
.	8a-	.
8EE-	8b-J)	.
4.E-	4.ee-^< 4.cc-X 4.e-	.
!!LO:LB:g=original
=224	=224	=224
*	*^	*
4DD-	(>4.ee-	4.b--^< 4.f-X	.
8r	.	.	.
(>8D-L	8dd-L	4.ryy	.
8F-X	8ee-	.	.
8B--J	8dd-J	.	.
*	*v	*v	*
=225	=225	=225
4f-X)	8b--L	.
.	8cc-X	.
8r	8b--J	.
4r	8f-XL\	.
.	8ff-X	.
8r	8f-J	.
=226	=226	=226
2.rD	8d-L	.
.	8e-	.
.	8d-J	.
.	8B--<L	.
.	8b--	.
.	8B--<J	.
=227	=227	=227
2.D- 2.EE-	8A-<L	.
.	8B-X<	.
.	8A-<J	.
.	8G<L	.
.	8f-X	.
.	8e-J)	.
=228	=228	=228
*	*^	*
!	!LO:TX:b:Bi:t=sempre più animato crescendo.:dur=10e:problem:text with extention lines	!	!
8AAA-\L	(>[>4.G-X<	2.C<\	.
8AA-\	.	.	.
8EE-\J	.	.	.
8AAA-\L	8G-<L]	.	.
8AA-\	8F<	.	.
8EE-\J	8E-<J	.	.
=229	=229	=229	=229
8AAA-\L	4F<	2.D-<\	.
8AA-\	.	.	.
8FF\J	8F<	.	.
8AAA-\L	8F<L	.	.
8AA-\	8G<	.	.
8FF\J	8A-<J	.	.
!!LO:LB:g=original
=230	=230	=230	=230
!	!	!LO:TX:b:t=P:note position:problem	!
8AAA-\L	4G<	2.F-X<\	.
8D-\	.	.	.
8FF-X\J	8G<	.	.
8AAA-\L	8G<L	.	.
8D-\	8A-<	.	.
8FF-\J	8B-<J	.	.
=231	=231	=231	=231
8AAA-\L	4c<	4.A-< 4.E-<\	.
8C\	.	.	.
8EE-\J	8c<	.	.
8AAA-\L	4c<	4.A-< 4.En<\	.
8C\	.	.	.
8EEn\J	8c<	.	.
=232	=232	=232	=232
8AAA-\L	4c<	4.A-< 4.F<\	.
8C\	.	.	.
8FF\J	8c<	.	.
8AAA-\L	4c<	4.A-< 4.En<\	.
8C\	.	.	.
8EEn\J	8c<	.	.
=233	=233	=233	=233
8AAA-\L	4c<	4.A-< 4.F<\	.
8C\	.	.	.
8FF\J	8c<	.	.
8AAA-\L	4c<	4.A-< 4.F-X<\	.
8C\	.	.	.
8FF-X\J	8c<	.	.
=234	=234	=234	=234
8AAA-L	8c-X<L	4.F-X<\	.
8C-X	8d-<	.	.
8FF-XJ	8c-<J	.	.
8GGGL\	4f-X	4.F-<\	.
8C-	.	.	.
8FF-J	8f-	.	.
=235	=235	=235	=235
8AAA-L	8c-X<L	4.F-X<\	.
8C-X	8d-<	.	.
8FF-XJ	8c-<J	.	.
8FFF-XL\	4f-X	4.F-<\	.
8C-	.	.	.
8FF-J	8f-	.	.
!!LO:LB:g=original
=236	=236	=236	=236
8AAA-	[>4.e-	2.c	.
8r	.	.	.
8E-	.	.	.
8AA-L	8e-L]	.	.
8A-	8f	.	.
8E-J	8g-XJ	.	.
=237	=237	=237	=237
8AA-L	4f	2.d-	.
8A-	.	.	.
8FJ	8f	.	.
8AA-L	8fL	.	.
8A-	8g	.	.
8FJ	8a-J	.	.
=238	=238	=238	=238
!	!	!LO:TX:a:t=P:note position:problem	!
8AA-L	4g	2.f-X	.
8d-	.	.	.
8F-XJ	8g	.	.
8AA-L	8gL	.	.
8d-	8a-	.	.
8F-J	8b-J	.	.
=239	=239	=239	=239
8AA-L	4cc	4.a- 4.e-	.
8c	.	.	.
8E-J	8cc	.	.
8AA-L	4cc	4.a- 4.en	.
8c	.	.	.
8EnJ	8cc	.	.
=240	=240	=240	=240
8AA-L	4cc	4.a- 4.f	.
8c	.	.	.
8FJ	8cc	.	.
8AA-L	4cc	4.a- 4.en	.
8c	.	.	.
8EnJ	8cc	.	.
=241	=241	=241	=241
8AA-L	4cc	4.a- 4.f	.
8c	.	.	.
8FJ	8cc	.	.
8AA-L	4cc	4.a- 4.f-X	.
8c	.	.	.
8F-XJ	8cc	.	.
!!LO:PB:g=original
=242	=242	=242	=242
8AA-L	8cc-XL	4.f-X	.
8c-X	8dd-	.	.
8F-XJ	8cc-J	.	.
8GGL	4ff-X	4.f-	.
8c-	.	.	.
8F-J	8ff-	.	.
=243	=243	=243	=243
8AA-L	8cc-XL	4.f-X	.
8c-X	8dd-	.	.
8F-XJ	8cc-J	.	.
8FF-XL	4ff-X	4.f-	.
8c-	.	.	.
8F-J	8ff-	.	.
=244	=244	=244	=244
8AA-L	4ee- 4cc 4e-)\	4.ryy	.
8c	.	.	.
8E-J	8r	.	.
8D-L	(>[>4.ff-X	8dd-L	.
8f-X	.	8cc-X	.
8B--J	.	8b--J	.
=245	=245	=245	=245
8D-L	4.ff-]	8dd-L	.
8f-X	.	8cc-X	.
8B--J	.	8b--J	.
8E-L	4.ee-	8gL	.
8d-	.	8b--	.
!!!SIC@EN: there should be 8b- instead of 8b--
8GJ	.	8e-J	.
=246	=246	=246	=246
8AA-L	4.ee-	8ccL	.
8c	.	8b-	.
8E-J	.	8a-J	.
8D-L	[>4.ff-X	8dd-L	.
8f-X	.	8cc-X	.
8B--J	.	8b--J	.
=247	=247	=247	=247
8D-L	4.ff-]	8dd-L	.
8f-X	.	8cc-X	.
8B--J	.	8b--J	.
8E-L	4.ee-	8gL	.
8d-	.	8b--	.
!!!SIC@EN: there should be 8b- instead of 8b--
8GJ	.	8e-J	.
!!LO:LB:g=original
=248	=248	=248	=248
8AA-L	4.ee-	8ccL	.
8c	.	8b-	.
8E-J	.	8a-J	.
8D-L	4.ff-X	8dd-L	.
8f-X	.	8cc-X	.
8B--J	.	8b--J	.
=249	=249	=249	=249
8D-L	4.bb--	8dd-L	.
8f-X	.	8ff-X	.
8B--J	.	8b--J	.
8E-L	4.ee-	8gL	.
8d-	.	8b-X	.
8GJ	.	8e-J	.
=250	=250	=250	=250
8AA-L	4.ee-	8ccL	.
8c	.	8b-	.
8E-J	.	8a-J	.
8D-L	4.ff-X	8dd-L	.
8f-X	.	8cc-X	.
8B--J	.	8b--J	.
=251	=251	=251	=251
8D-L	4.bb--	8dd-L	.
8f-X	.	8ff-X	.
8B--J	.	8b--J	.
8E-L	4.ee-	8gL	.
8d-	.	8b-X	.
8GJ	.	8e-J)	.
=252	=252	=252	=252
4c 4A-	(>4.ee-	8ccL	.
.	.	8b-	.
[<8EE-	.	8a-J)	.
4E-^> 4EE-]	(>4.ff-X	8dd-L	.
.	.	8cc-X	.
8DDn	.	8b--J)	.
!!LO:LB:g=original
=253	=253	=253	=253
4E-^> 4EE-	(>4.ff-X	8dd-L	.
.	.	8cc-X	.
8DDn	.	8b--J)	.
4E-^> 4EE-	(>4.ffn	8ddnL	.
.	.	8ccn	.
8DD	.	8bnJ)	.
=254	=254	=254	=254
4E- 4EE-	(>4.ff	8ddnL	.
.	.	8cc	.
8DDn	.	8bnJ)	.
4E- 4EE-	(>4.gg-X	8ee-L	.
.	.	8dd-X	.
8DD	.	8ccJ)	.
=255	=255	=255	=255
4E- 4EE-	(>4.gg-X	8ee-L	.
.	.	8dd-	.
8DDn	.	8ccJ)	.
4E- 4EE-	(>4.ggn	8ff-XL	.
.	.	8ee-	.
8DD	.	8dd-J)	.
*	*v	*v	*
=256	=256	=256
4E- 4EE-	(>8ggnL 8ff-X	.
.	8ee-	.
8DDn	8dd-J)	.
4E- 4EE-	(>8aa-L 8ffn 8cc-X	.
.	8ee-	.
8DD	8ddnJ)	.
=257	=257	=257
4E- 4EE-	(>8aanL 8gg-X 8cc	.
.	8ff	.
8DDn	8ee-J)	.
4E- 4EE-	(>8bb-L 8ggn 8dd-	.
.	8gg-X	.
8DD	8ff-XJ)	.
!!LO:LB:g=original
=258	=258	=258
4E- 4EE-	(>8bbnL 8aa- 8ddn	.
.	8gg-X	.
(<8DDn	8ffJ)	.
4E- 4EE-)	(>8cccL 8aan 8ee-	.
.	8ggn	.
8DD	8ff#XJ)	.
=259	=259	=259
4E- 4EE-	8ddd-L 8bb- 8ff-X	.
.	8aa-	.
(<8DDn	[<8ggJ	.
4E- 4EE-)	(>8eee-L 8ddd- 8gg]	.
.	8bb-	.
8r	8ee-J	.
=260	=260	=260
4AA-' 4AAA-'	4ccc 4aa-)	fz
(>8AA-	8r	.
4A-)	(>8eee-^<L 8gg-X	fff
.	8fff	.
(<8AAA-	8eee-J	.
=261	=261	=261
4AA-)	8aa-^<L 8ff	.
.	8bb-	.
(>8AA-	8aa-J	.
4A-)	8ddd-^<L 8ff-X	.
.	8eee-	.
(<8AAA-	8ddd-J	.
=262	=262	=262
4AA-)	8ccc^<L 8ee-	.
.	8ddd-	.
(>8AA-	8cccJ	.
4A-)	8eee-^<L 8gg-X	.
.	8fff	.
(<8AAA-	8eee-J	.
=263	=263	=263
4AA-)	8aa-^<L 8ff	.
.	8bb-	.
(>8AA-	8aa-J	.
4A-)	8ddd-^<L 8ff-X	.
.	8eee-	.
(>8AA-	8ddd-J	.
!!LO:LB:g=original
=264	=264	=264
4A-)	8ccc^<L 8ee-	.
.	8ddd-	.
(>8A-	8cccJ	.
4a-)	8eee-^<L 8gg-X	.
.	8fff	.
(>8AA-	8eee-J	.
=265	=265	=265
4A-)	8aa-L 8ff	.
.	8bb-	.
(>8A-	8aa-J	.
4a-)	8ddd-L 8ff-X	.
.	8eee-	.
(>8AA-	8ddd-J	.
=266	=266	=266
4A-)	8cccL 8ee-	.
.	8ddd-	.
(>8A-	8cccJ	.
4a-)	8eee-L 8gg-X	.
.	8fff	.
(>8AA-	8eee-J	.
=267	=267	=267
4A-)	8aa-L 8ff	.
.	8bb-	.
(>8A-	8aa-J	.
4a-)	8ddd-L 8ff-X	.
.	8eee-	.
[<8AA-	8ddd-J	.
=268	=268	=268
4A- 4AA-]	4aaa- 4ccc)	fz
8r	8r	.
4r	4r	.
8r	8r	.
=269	=269	=269
4r	4r	.
8r	8r	.
!	!	!LO:DY:rj
4.EE- 4.EEE-	4.ee- 4.b- 4.g 4.e- 4.d-	ff
=270	=270	=270
2.AA-;< 2.AAA-	2.cc; 2.a- 2.e- 2.c	.
==	==	==
*-	*-	*-
!!title: @{OTL}; @{OPS} @{ONM} publisher: @{PPR}
!!!RDF**kern: > = above
!!!RDF**kern: < = below
!!!RDF**dynam: > = "dim.", fontstyle= "bold-italic"
!!!RDF**dynam: < = "cres", fontstyle= "bold-italic"
!!!RDF**kern: N = linked
!!!RDF**kern: i=editorial accidental, bracket
!!!ENC: Wojciech Jakubiak-Danek
!!!END: 2019-09-05
!!!EED: Zofia Niedbalska
!!!EST: revision finished 2019-10-23
!!!rism-genre: Tarantella
!!!rism-key: A-flat major
!!!rism-opus: op.  43
!!!rism-title: Tarantella in A-flat major op.  43
!!!rism-permalink: https://opac.rism.info/search?id=1001043664&View=rism
